X: 186
T: Echuca Waltz
B: australian dance tunes
M:3/4
L:1/8
R: Waltz
Q: 1/4=100
K:G
V:1 
D2|G4 A2|B2 G2 G2|g2 f2 e2|d4 B2|D2 G2 A2|B2 d2 G2|A2 c2 B2|A2 F2 D2|!
G4 A2|B2 G2 G2|g2 f2 e2|d4 B2|D2 G2 A2|B2 d2 c2|B4 A2|G4 d2|!
e2 d2 d2|B2 G2 G2|A2 c2 B2|c4 d2|f2 e2 e2|c4 A2|B2 d2 c2|d4 fg|!
a2 g2 g2|d2 B2 d2|f2 (3fff f2|c4 d2|d2 c2 d2|e2 d2 B2|G2 (3GGG G2|G6||
% abcbook-tune_id 62a07850e9c86d95c269fd31


% abcbook-boost 0
% abcbook-tablature 
% abcbook-transpose 
% abcbook-lastupdated 1654683750239
% abcbook-soundfonts 
% abcbook-repeats 1


